symbolic/status/arch-unknown-symbolic.svg

<svg width="16" height="16" version="1.1" xmlns="http://www.w3.org/2000/svg">
 <path d="m8 5c0.61792 0.00131 1.22 0.19417 1.7246 0.55078l0.27539-0.55078 1 2h-2l0.26953-0.53906c-0.35718-0.29597-0.80566-0.45952-1.2695-0.46094-1.1046 0-2 0.89543-2 2h-1c0-1.6569 1.3431-3 3-3zm2 3h1c0 1.6569-1.3431 3-3 3-0.61802-0.001663-1.2201-0.19387-1.7246-0.55078l-0.27539 0.55078-1-2h2l-0.26953 0.53906c0.35718 0.29597 0.80566 0.45952 1.2695 0.46094 1.1046 0 2-0.89543 2-2z" fill="#f8f8f2"/>
 <path d="m8-0.046875-0.29688 0.091797-6.7031 2.0859v7.2695c0 2.477 1.9475 4.0384 3.3926 4.9805 1.5153 0.9879 3.2891 1.5664 3.2891 1.5664l0.31836 0.10742 0.31836-0.10742s1.7738-0.57858 3.2891-1.5664h2e-3l2e-3 -2e-3c1.4464-0.95292 3.3886-2.5214 3.3886-4.9785v-7.2695zm0 2.0938 5 1.5566v5.7969c0 1.3493-1.2145 2.466-2.4863 3.3047-1.0692 0.69702-2.2117 1.0871-2.5137 1.1953-0.302-0.10819-1.4445-0.49826-2.5137-1.1953-1.275-0.83123-2.4863-1.9177-2.4863-3.3047v-5.7969z" fill="#f8f8f2"/>
</svg>

<svg xmlns="http://www.w3.org/2000/svg" width="16" height="16" version="1.1">
 <path style="fill:#dfdfdf" d="M 8,1 C 6.175,2.725 3,4 2,4.25 2,9 4.25,14.25 8,15 11.75,14.25 14,9 14,4.25 13,4 9.825,2.725 8,1 Z M 8,5 C 8.6179,5.0016 9.2202,5.194 9.7246,5.5508 L 10,5 11,7 H 9 L 9.2695,6.4609 C 8.9126,6.1647 8.4638,6.0018 8,6 6.8954,6 6,6.8954 6,8 H 5 C 5,6.3431 6.3431,5 8,5 Z M 10,8 H 11 C 11,9.6569 9.6569,11 8,11 7.3821,10.998 6.7798,10.806 6.2754,10.449 L 6,11 5,9 H 7 L 6.7305,9.5391 C 7.0874,9.8353 7.5362,9.9982 8,10 9.1046,10 10,9.1046 10,8 Z"/>
</svg>
